X: 3942
T: Blackbird, The
R: hornpipe
M: 4/4
K: Dmajor
|:B3 d A2 A/B/c|dcAG F3 E|D/E/F AF GBAG|1 FDDE DFGA:|2 FDDE DEFG||
|:Addc d2 ed|efed c3 B|Addc d2 ed|efec defe|
dcAd B3 c|dcAG F3 E|D/E/F AF GBAG|1 FDDE DEFG:|2 FDDE DFGA||

